X:1
T:Title
%%score { ( 1 2 5 ) | ( 3 4 ) }
L:1/8
Q:1/4=100
M:3/4
K:A
V:1 bass nm="Grand Piano"
V:2 bass 
V:5 bass 
V:3 bass 
V:4 bass 
V:1
 [CE]4 .[F,F]2 | [CE]4 z2 | [G,DE]4 .[G,DF]2 | [E,G,DE]4 z2 | [CE]4 z2 | A4 GA | c2- [A,c]2 BA | %7
w: A.~H.~Howard *|||||||
 z2 G4[K:bass] | [A,CE]4[K:treble] [C^E]2 | [A,DF]4 [A,DF][A,DF] | [A,^DF]4 GA | c4 B2 | c4 z2 | %13
w: ||||||
 [CFA]2 [C^DFA]2 [CFA]2 | G4 z2 | G6- | G4 z2 | [CEc]4 [CEA]2 | [B,DG]2 [A,DF]2 [G,DE]2 | [CEA]6 | %20
w: |||||||
 c4 z2 | [^Dc]4 [DF]2 |[M:7/8] [DB]3 [C^A][Ec] [DB]2 |[M:3/4] [CA]6 |] %24
w: ||||
V:2
 z2 E,2 C-[CE] | E,2 E,A, G,F, | x6 | x6 | A,2 A,2 .[A,CF]2 | [CE]6 | ^D6 | [B,E]6[K:bass] | %8
 x4[K:treble] x2 | x6 | z2 z2 [A,^D]2 | x6 | z2 G,2 [C^EG]2 | x6 | [G,=C^DF]2 [^CE]2 [=CFG]2 | E6 | %16
 [B,D]4 [DB]2 | x6 | x6 | z2 A,2 A,2 | z2 ^A,2 dc | x6 |[M:7/8] x7 |[M:3/4] x6 |] %24
V:3
 [A,,E,]2 A,,2 z E, | A,,2 A,,4 | [E,,E,]2 [E,,E,]2 z E | E,,3 F, D,B,, | A,,2 A,,2 z G | %5
 [F,,F,]2 [F,,F,]2 [F,,F,]2 | [B,,F,A,]2 [B,,F,]2 z ^D | [E,,E,]2 [E,,E,]2 E,,2 | %8
 A,,2 A,,2 [A,,A,]2 | [D,,D,]2 [D,,D,]2 [D,,D,][D,,D,] | [B,,,B,,]2 [B,,,B,,]2 [B,,,B,,]2 | %11
 [E,G,D]6 | [^E,G,]2 z2 z2 | F,2 F,2 F,2 | G,,2 [G,,G,]2 [G,,G,]2 | [C,C]6 | %16
 [E,,E,]2 [E,,E,]2 [E,G,]2 | [A,,A,]2 [A,,A,]2 [A,,A,]2 | [E,,E,]2 [E,,E,]2 [E,,E,]2 | %19
 [A,,A,]2 A,,2 A,,2 | E2- [F,E]2 [F,^A,E]2 | [B,,B,]2 [B,,B,]2 [B,,A,]2 | %22
[M:7/8] [E,G,]- [E,G,]3 [E,G,]3 |[M:3/4] [A,,E,A,]6 |] %24
V:4
 z2 z2 A,,2 | x6 | z2 z2 [E,,E,]2 | x6 | z2 z2 A,,2 | x6 | z2 z2 [B,,F,A,]2 | x6 | x6 | x6 | x6 | %11
 x6 | C2- [^E,C]2 C,2 | x6 | x6 | x6 | x6 | x6 | x6 | x6 | [F,^A,]2 z2 z2 | x6 |[M:7/8] x7 | %23
[M:3/4] x6 |] %24
V:5
 x6 | x6 | x6 | x6 | x6 | x6 | x6 | A2 z2[K:bass] E,2 | x4[K:treble] x2 | x6 | x6 | x6 | x6 | x6 | %14
 x6 | x6 | x6 | x6 | x6 | x6 | x6 | x6 |[M:7/8] x7 |[M:3/4] x6 |] %24

